svgs/asus_calculator.svg

<svg xmlns="http://www.w3.org/2000/svg" viewBox="0 0 24 24"><path fill-rule="evenodd" d="M2 18V2h20v16a4 4 0 0 1-4 4H6a4 4 0 0 1-4-4M20.5 3.5h-8v17H18a2.5 2.5 0 0 0 2.5-2.5zm-17 0h8v8h-8zm8 9h-8V18A2.5 2.5 0 0 0 6 20.5h5.5zM14 10v1h5v-1zm0 4v-1h5v1zM8 5H7v2H5v1h2v2h1V8h2V7H8zM5 17v-1h5v1z"/></svg>

<svg width="24" height="24" viewBox="0 0 24 24" fill="none" xmlns="http://www.w3.org/2000/svg">
<path d="M14 10V11H19V10H14Z" fill="#FFF1C0"/>
<path d="M14 14V13H19V14H14Z" fill="#FFF1C0"/>
<path d="M8 5H7V7H5V8H7V10H8V8H10V7H8V5Z" fill="#FFF1C0"/>
<path d="M5 17V16H10V17H5Z" fill="#FFF1C0"/>
<path fill-rule="evenodd" clip-rule="evenodd" d="M2 18V2H22V18C22 20.2091 20.2091 22 18 22H6C3.79086 22 2 20.2091 2 18ZM20.5 3.5H12.5V20.5H18C19.3807 20.5 20.5 19.3807 20.5 18V3.5ZM3.5 3.5H11.5V11.5H3.5V3.5ZM11.5 12.5H3.5V18C3.5 19.3807 4.61929 20.5 6 20.5H11.5V12.5Z" fill="#FFF1C0"/>
</svg>
